Origami/64x64/apps/libreoffice-main.svg

<svg width="64" height="64" version="1" xmlns="http://www.w3.org/2000/svg">
 <path d="m10 56v2c0 1.662 1.338 3 3 3h38c1.662 0 3-1.338 3-3v-2c0 1.662-1.338 3-3 3h-38c-1.662 0-3-1.338-3-3z" style="opacity:.2"/>
 <path d="m54 57v-50c0-1.662-1.338-3-3-3h-38c-1.662 0-3 1.338-3 3v50c0 1.662 1.338 3 3 3h38c1.662 0 3-1.338 3-3z" style="fill:#4f4f4f"/>
 <path d="M 14,9 14,57 50,57 50,25.828 33.172,9 14,9 Z M 38.828,9 50,20.172 50,9 38.828,9 Z" style="opacity:.1"/>
 <path d="M 14,8 14,56 50,56 50,24.828 33.172,8 14,8 Z M 38.828,8 50,19.1718 50,8 38.828,8 Z" style="fill:#f5f5f5"/>
 <path d="m13 4c-1.662 0-3 1.338-3 3v1c0-1.662 1.338-3 3-3h38c1.662 0 3 1.338 3 3v-1c0-1.662-1.338-3-3-3h-38z" style="fill:#ffffff;opacity:.1"/>
</svg>

<svg xmlns="http://www.w3.org/2000/svg" width="64" height="64" version="1">
 <path style="opacity:0.2" d="m 10,56 0,2 c 0,1.662 1.338,3 3,3 l 38,0 c 1.662,0 3,-1.338 3,-3 l 0,-2 c 0,1.662 -1.338,3 -3,3 l -38,0 c -1.662,0 -3,-1.338 -3,-3 z"/>
 <path style="fill:#4f4f4f" d="M 54,57 54,7 C 54,5.338 52.662,4 51,4 L 13,4 c -1.662,0 -3,1.338 -3,3 l 0,50 c 0,1.662 1.338,3 3,3 l 38,0 c 1.662,0 3,-1.338 3,-3 z"/>
 <path style="opacity:0.1" d="M 14,9 14,57 50,57 50,25.828 33.172,9 14,9 Z M 38.828,9 50,20.172 50,9 38.828,9 Z"/>
 <path style="fill:#f5f5f5" d="M 14,8 14,56 50,56 50,24.828 33.172,8 14,8 Z M 38.828,8 50,19.1718 50,8 38.828,8 Z"/>
 <path style="opacity:0.1;fill:#ffffff" d="M 13 4 C 11.338 4 10 5.338 10 7 L 10 8 C 10 6.338 11.338 5 13 5 L 51 5 C 52.662 5 54 6.338 54 8 L 54 7 C 54 5.338 52.662 4 51 4 L 13 4 z"/>
</svg>
